remix/Logos/invision-line.svg

<svg viewBox="0 0 24 24" fill="currentColor" xmlns="http://www.w3.org/2000/svg"><path d="M4.00098 3H20.001C20.5533 3 21.001 3.44772 21.001 4V20C21.001 20.5523 20.5533 21 20.001 21H4.00098C3.44869 21 3.00098 20.5523 3.00098 20V4C3.00098 3.44772 3.44869 3 4.00098 3ZM5.00098 5V19H19.001V5H5.00098ZM6.98859 14.065L7.75826 10.7936H6.56612L6.92833 9.40324H9.79573L8.66372 14.0749C8.58825 14.3735 8.55815 14.6211 8.55815 14.7935C8.55815 15.0923 8.69942 15.1796 8.92043 15.2314C9.05502 15.2628 10.1275 15.2409 10.7114 13.8906L11.4549 10.7936H10.2475L10.6098 9.40324H13.1904L12.8585 10.9817C13.3111 10.1023 14.2167 9.26673 15.1071 9.26673C16.0579 9.26673 16.8428 9.97143 16.8428 11.3218C16.8428 11.6671 16.7974 12.043 16.6767 12.4668L16.1937 14.2719C16.1485 14.4607 16.1182 14.6176 16.1182 14.7589C16.1182 15.0727 16.239 15.2297 16.4654 15.2297C16.6917 15.2297 16.9785 15.0566 17.3106 14.0993L17.9746 14.366C17.5821 15.7949 16.8729 16.3913 15.9824 16.3913C14.941 16.3913 14.4431 15.7479 14.4431 14.8683C14.4431 14.6173 14.4732 14.3502 14.5486 14.0832L15.0468 12.2304C15.1071 12.0263 15.1222 11.838 15.1222 11.6652C15.1222 11.0687 14.7751 10.7074 14.2167 10.7074C13.5073 10.7074 13.0395 11.2372 12.798 12.2578L11.8321 16.2887H10.1419L10.4453 15.022C9.94845 15.8711 9.25846 16.397 8.40727 16.397C7.38103 16.397 6.89804 15.7819 6.89804 14.8553C6.89804 14.6202 6.92833 14.3319 6.98859 14.065ZM8.62598 8.625C8.00466 8.625 7.50098 8.12132 7.50098 7.5C7.50098 6.87868 8.00466 6.375 8.62598 6.375C9.2473 6.375 9.75098 6.87868 9.75098 7.5C9.75098 8.12132 9.2473 8.625 8.62598 8.625Z"/></svg>

<svg viewBox="0 0 24 24" xmlns="http://www.w3.org/2000/svg"><path fill="none" d="M0 0h24v24H0Z"/><path d="M4 3h16v0c.55 0 1 .44 1 1v16 0c0 .55-.45 1-1 1H4v0c-.56 0-1-.45-1-1V4v0c0-.56.44-1 1-1Zm1 2v14h14V5H5Zm1.98 9.06l.77-3.28H6.556l.36-1.39h2.86l-1.14 4.67v-.001c-.07.23-.1.47-.11.72 0 .29.14.38.36.43 .13.03 1.2.01 1.79-1.34l.74-3.1h-1.21l.36-1.39h2.58l-.34 1.57c.45-.88 1.35-1.72 2.24-1.72 .95 0 1.73.7 1.73 2.05 0 .34-.05.72-.17 1.14l-.49 1.8v-.001c-.05.15-.07.32-.08.48 0 .31.12.47.34.47 .22 0 .51-.18.84-1.13l.66.26c-.4 1.42-1.11 2.02-2 2.02 -1.05 0-1.54-.65-1.54-1.53 0-.25.03-.52.1-.79l.49-1.86c.06-.21.07-.4.07-.57 0-.6-.35-.96-.91-.96 -.71 0-1.18.53-1.42 1.55l-.97 4.03H10l.3-1.27c-.5.85-1.19 1.375-2.04 1.375 -1.03 0-1.51-.62-1.51-1.55 0-.24.03-.53.09-.79Zm1.63-5.44v0c-.63 0-1.125-.51-1.125-1.125 0-.63.5-1.125 1.125-1.125v0c.62 0 1.125.5 1.125 1.125 0 .62-.51 1.125-1.125 1.125Z"/></svg>
